resources/svg/book-2-fill.svg

<svg fill="currentColor" viewBox="0 0 24 24" xmlns="http://www.w3.org/2000/svg"><path d="M21 18H6C5.44772 18 5 18.4477 5 19C5 19.5523 5.44772 20 6 20H21V22H6C4.34315 22 3 20.6569 3 19V4C3 2.89543 3.89543 2 5 2H21V18ZM16 9V7H8V9H16Z"/></svg>

<svg xmlns="http://www.w3.org/2000/svg" viewBox="0 0 24 24" fill="currentColor">
    <g>
        <path fill="none" d="M0 0h24v24H0z"/>
        <path d="M21 18H6a1 1 0 0 0 0 2h15v2H6a3 3 0 0 1-3-3V4a2 2 0 0 1 2-2h16v16zm-5-9V7H8v2h8z"/>
    </g>
</svg>
